X: 20553
T: CALEDONIAN HUNT REEL
C:
%R: reel
B: Elias Howe "The Musician's Companion" 1843 p.55 #3
S: http://imslp.org/wiki/The_Musician's_Companion_(Howe,_Elias)
Z: 2015 John Chambers <jc:trillian.mit.edu>
M: C|
L: 1/8
K: D
% - - - - - - - - - - - - - - - - - - - - - - - - -
A |\
FAdA BdAF | GBAF BEEG |\
FAdA BdAF | GBAG FDDG |\
FAdA BdAF | GBAF BEEG |
FAdA BdAF | FADg fdd :|\
|: f |\
d/e/f/g/ af bgaf | d/e/f/g/ af geef |\
d/e/f/g/ af bgaf |
Aaag fddf |\
d/e/f/g/ af bgaf | d/e/f/g/ af geeg |\
fdef dBAF | ABde fdd :|
% - - - - - - - - - - - - - - - - - - - - - - - - -

%%sep 1 1 500

